fl/WW.svg

<svg viewBox="0 0 23 17" version="1.1" xmlns="http://www.w3.org/2000/svg" xmlns:xlink="http://www.w3.org/1999/xlink" height="1em" width="1em">
  <defs>
    <linearGradient x1="50%" y1="0%" x2="50%" y2="100%" id="c">
      <stop stop-color="#FFFFFF" offset="0%"/>
      <stop stop-color="#F0F0F0" offset="100%"/>
    </linearGradient>
    <rect id="a" x="0" y="0" width="21" height="15" rx="1.5"/>
    <filter x="-50%" y="-50%" width="200%" height="200%" filterUnits="objectBoundingBox" id="b">
      <feOffset dx="0" dy="0.5" in="SourceAlpha" result="shadowOffsetOuter1"/>
      <feGaussianBlur stdDeviation="0.5" in="shadowOffsetOuter1" result="shadowBlurOuter1"/>
      <feColorMatrix values="0 0 0 0 0 0 0 0 0 0 0 0 0 0 0 0 0 0 0.16 0" type="matrix" in="shadowBlurOuter1"/>
    </filter>
    <linearGradient x1="50%" y1="0%" x2="50%" y2="100%" id="d">
      <stop stop-color="#19BFBF" offset="0%"/>
      <stop stop-color="#10ACAC" offset="100%"/>
    </linearGradient>
    <path d="M10.21087,11.990861 C10.3064665,11.9969229 10.4028739,12 10.5,12 C10.5971261,12 10.6935335,11.9969229 10.78913,11.990861 C11.4758049,11.1775712 11.9162221,9.68678441 11.9892341,8 L9.01076588,8 C9.08377789,9.68678441 9.52419507,11.1775712 10.21087,11.990861 Z M8.83700803,11.6827331 C7.32289465,11.0802225 6.21310983,9.67937454 6.02746439,8 L8.00976828,8 C8.06462514,9.39602291 8.34945465,10.6897142 8.83700803,11.6827331 Z M10.21087,3.00913899 C10.3064665,3.00307705 10.4028739,3 10.5,3 C10.5971261,3 10.6935335,3.00307705 10.78913,3.00913899 C11.4758049,3.82242881 11.9162221,5.31321558 11.9892341,7 L9.01076588,7 C9.08377789,5.31321558 9.52419507,3.82242881 10.21087,3.00913899 Z M8.83700803,3.3172669 C7.32289465,3.91977749 6.21310983,5.32062546 6.02746439,7 L8.00976828,7 C8.06462514,5.60397709 8.34945465,4.31028585 8.83700803,3.3172669 Z M12.162992,11.6827331 C13.6771054,11.0802225 14.7868902,9.67937454 14.9725356,8 L12.9902317,8 C12.9353749,9.39602291 12.6505453,10.6897142 12.162992,11.6827331 Z M12.162992,3.3172669 C13.6771054,3.91977749 14.7868902,5.32062546 14.9725356,7 L12.9902317,7 C12.9353749,5.60397709 12.6505453,4.31028585 12.162992,3.3172669 Z M10.5,13 C13.5375661,13 16,10.5375661 16,7.5 C16,4.46243388 13.5375661,2 10.5,2 C7.46243388,2 5,4.46243388 5,7.5 C5,10.5375661 7.46243388,13 10.5,13 Z" id="g"/>
    <filter x="-50%" y="-50%" width="200%" height="200%" filterUnits="objectBoundingBox" id="f">
      <feOffset dx="0" dy="0.5" in="SourceAlpha" result="shadowOffsetOuter1"/>
      <feColorMatrix values="0 0 0 0 0 0 0 0 0 0 0 0 0 0 0 0 0 0 0.06 0" type="matrix" in="shadowOffsetOuter1"/>
    </filter>
  </defs>
  <g stroke="none" stroke-width="1" fill="none" fill-rule="evenodd">
    <g>
      <g transform="translate(1.000000, 1.000000)">
        <mask id="e" fill="white">
          <use xlink:href="#a"/>
        </mask>
        <g>
          <use fill="black" fill-opacity="1" filter="url(#b)" xlink:href="#a"/>
          <use fill="url(#c)" fill-rule="evenodd" xlink:href="#a"/>
        </g>
        <rect fill="url(#d)" mask="url(#e)" x="0" y="0" width="21" height="15"/>
        <g mask="url(#e)">
          <use fill="black" fill-opacity="1" filter="url(#f)" xlink:href="#g"/>
          <use fill="url(#c)" fill-rule="evenodd" xlink:href="#g"/>
        </g>
        <rect mask="url(#e)" x="0" y="0" width="21" height="15" rx="1.5"/>
      </g>
    </g>
  </g>
</svg>

<svg viewBox="0 0 23 17" xmlns="http://www.w3.org/2000/svg" xmlns:xlink="http://www.w3.org/1999/xlink" height="1em" width="1em">
  <defs>
    <linearGradient x1="50%" y1="0%" x2="50%" y2="100%" id="c">
      <stop stop-color="#FFF" offset="0%"/>
      <stop stop-color="#F0F0F0" offset="100%"/>
    </linearGradient>
    <linearGradient x1="50%" y1="0%" x2="50%" y2="100%" id="d">
      <stop stop-color="#19BFBF" offset="0%"/>
      <stop stop-color="#10ACAC" offset="100%"/>
    </linearGradient>
    <filter x="-50%" y="-50%" width="200%" height="200%" filterUnits="objectBoundingBox" id="b">
      <feOffset dy=".5" in="SourceAlpha" result="shadowOffsetOuter1"/>
      <feGaussianBlur stdDeviation=".5" in="shadowOffsetOuter1" result="shadowBlurOuter1"/>
      <feColorMatrix values="0 0 0 0 0 0 0 0 0 0 0 0 0 0 0 0 0 0 0.16 0" in="shadowBlurOuter1"/>
    </filter>
    <filter x="-50%" y="-50%" width="200%" height="200%" filterUnits="objectBoundingBox" id="f">
      <feOffset dy=".5" in="SourceAlpha" result="shadowOffsetOuter1"/>
      <feColorMatrix values="0 0 0 0 0 0 0 0 0 0 0 0 0 0 0 0 0 0 0.06 0" in="shadowOffsetOuter1"/>
    </filter>
    <rect id="a" x="0" y="0" width="21" height="15" rx="1.5"/>
    <path d="M10.21 11.99a4.568 4.568 0 0 0 .58 0c.686-.812 1.126-2.303 1.2-3.99H9.01c.074 1.687.514 3.178 1.2 3.99Zm-1.373-.307A4.504 4.504 0 0 1 6.027 8H8.01c.055 1.396.34 2.69.827 3.683Zm1.374-8.674a4.568 4.568 0 0 1 .578 0c.687.813 1.127 2.304 1.2 3.991H9.011c.073-1.687.513-3.178 1.2-3.99Zm-1.374.308A4.504 4.504 0 0 0 6.027 7H8.01c.055-1.396.34-2.69.827-3.683Zm3.326 8.366A4.504 4.504 0 0 0 14.973 8H12.99c-.055 1.396-.34 2.69-.827 3.683Zm0-8.366A4.504 4.504 0 0 1 14.973 7H12.99c-.055-1.396-.34-2.69-.827-3.683ZM10.5 13a5.5 5.5 0 1 0 0-11 5.5 5.5 0 0 0 0 11Z" id="g"/>
  </defs>
  <g transform="translate(1 1)" fill="none" fill-rule="evenodd">
    <mask id="e" fill="#fff">
      <use xlink:href="#a"/>
    </mask>
    <use fill="#000" filter="url(#b)" xlink:href="#a"/>
    <use fill="url(#c)" xlink:href="#a"/>
    <path fill="url(#d)" mask="url(#e)" d="M0 0h21v15H0z"/>
    <g mask="url(#e)">
      <use fill="#000" filter="url(#f)" xlink:href="#g"/>
      <use fill="url(#c)" xlink:href="#g"/>
    </g>
    <rect mask="url(#e)" width="21" height="15" rx="1.5"/>
  </g>
</svg>
